X: 1
T:Paddy Was up to Ganger -- Jig
M:6/8
L:1/8
R:jig
B:Ryan's Mammoth Collection
N:90 474
Z:Contributed by Ray Davies,  ray:davies99.freeserve.co.uk
K:G
u(d/c/)|\
BAG AGE | DGA BAG | BAG dcB | BAA AGA |
BAG AGE | DGA BAG | Bdg dBG | AEF G2:|
|:uB|\
GBd efg | dBG AGE | GBd efg | fdd def |
gfe dcB | AGA BGE | DcB AGA | BGG G2:|
